X: 24
T: Magnetic Rag
C: Scott Joplin
%%abc-version 2.0
%%abcx-abcm2ps-target-version 5.9.1 (29 Sep 2008)
%%abc-creator hum2abc beta
%%abcx-conversion-date 2021/07/20 09:00:57
%%abc-copyright 2021 Craig Stuart Sapp
%%abc-edited-by Craig Stuart Sapp
%%abc-edited-by Craig Stuart Sapp
%%abcx-initial-encoding-date 2005/02/04
%%humdrum-veritas 2302230212
%%humdrum-veritas-data 3317094640
%%removed 0's from note length
%%linebreak <none>
%%barnumbers 0
L: 1/4
M: 4/4
N: Derived from magnetic.krn
Q: "Tempo l'istesso" 1/4=112
%%staves {1 2}
V: 1 clef=treble
V: 2 clef=bass
K: Bb
[V:1] F/=E_E/-E2 | 
[V:2] F,/=E,_E,/-E,2 | 
[V:1] F/ED/-D2 | 
[V:2] F,/E,D,/-D,2 | 
[V:1] F/^F/G/^G/- G/A/B/=B/ | 
[V:2] F,/^F,/G,/^G,/- G,/A,/B,/=B,/ | 
[V:1] cz!accent![fcAF]z ]|:  
[V:2] Cz!accent![F,F,,]z ]|:  
[V:1] D/B/G/F/ E/c^c/ & D2E2 | 
[V:2] z[B,F,]z[A,F,] & B,,2C,2 | 
[V:1] d/F/B/D/ G/F3/ & D2^C/D3/ | 
[V:2] B,,[B,F,]B,,[B,F,] | 
[V:1] [F/E/][FE][F/E/]- F/G/[FE] & xxEx | 
[V:2] A,,[A,F,]F,,[A,F,] | 
[V:1] [F/D/][FD][F/D/]- F/G/[FD] & xxDx | 
[V:2] B,,[B,F,]F,,[B,F,] | 
[V:1] D/B/G/F/ E/c^c/ & D2E2 | 
[V:2] z[B,F,]z[A,F,] & B,,2C,2 | 
[V:1] d/F/B/d/ g/b3/ & D2d2 | 
[V:2] B,,[B,F,][B,B,,][G,G,,] | 
[V:1] xxe'/d'/a & a/c'/d'/[e'/^f/]-ff | 
[V:2] [^F,^F,,][DCF,][D,D,,][DCF,] | 
[V:1] c'/b/a/b<-bx/ & g2-g3/[b/e/]- | 
[V:2] [G,G,,][DB,G,][D,D,,][DB,G,] | 
[V:1] [be][ge]B/xF/ & e/B/e/G/ B/[fd]F/ | 
[V:2] [G,G,,][E,E,,][D,D,,][DB,F,] | 
[V:1] ee/d/- [d/B/]F/x & c/G/A/B/-x[fd] | 
[V:2] [F,F,,][EA,F,][B,B,,][_A,_A,,] | 
[V:1] [be][ge]B/xF/ & e/B/e/G/ B/[fd]F/ | 
[V:2] [G,G,,][E,E,,][D,D,,][DB,F,] | 
[V:1] ee/d/-xx & c/G/A/B<-[dB][b/e/]- | 
[V:2] [F,F,,][EA,F,][B,B,,][F,F,,] | 
[V:1] [be][ge]B/xF/ & e/B/e/G/ B/[fd]F/ | 
[V:2] [G,G,,][E,E,,][D,D,,][DB,F,] | 
[V:1] ee/d/- [d/B/]F/x & c/G/A/B/-x[fd] | 
[V:2] [F,F,,][EA,F,][B,B,,][_A,_A,,] | 
[V:1] [be][ge]B/xF/ & e/B/e/G/ B/[fd]F/ |[1 
[V:2] [G,G,,][E,E,,][D,D,,][DB,F,] | 
[V:1] ee/d/- [d/B/]G/F/E/ & c/G/A/B/-xx :|][2 
[V:2] [F,F,,][EA,F,][B,B,,][A,F,] :|]  
[V:1] ee/d/-x & c/G/A/B/-[dB] || 
[V:2] [F,F,,][EA,F,][B,B,,] ||  
[V:1] !accent![dA^F] [I:setbarnb 22]]|:  
[V:2] !accent![D,D,,] ]|:  
[V:1] {/GA} B/A/G/B/- B/A/G | 
[V:2] [G,G,,][DB,G,][D,D,,][DB,G,] | 
[V:1] x2z/ d/a & AG/^F/-F2 | 
[V:2] [^F,^F,,][DCF,][D,D,,][DCF,] | 
[V:1] {/AB} c/B/A/c/- c/B/A | 
[V:2] [A,A,,][DC^F,][D,D,,][F,^F,,] | 
[V:1] x2z/ d/b & BA/G/-G2 | 
[V:2] [G,G,,][DB,G,][B,,B,,,][D,D,,] | 
[V:1] {/GA} B/A/G/A/ B/cd/ | 
[V:2] [G,G,,][DB,G,][D,D,,][DB,G,] | 
[V:1] x2z/ g/e' & ed/c/-c2 | 
[V:2] [C,C,,][ECG,][E,E,,][ECG,] | 
[V:1] {/cd} e/d/c/B/ A/GA/ | 
[V:2] [C,C,,][EA,G,][E,E,,][CA,G,] | 
[V:1] ^FA/[d/F/]-[d2F2] | 
[V:2] [D,D,,][CC,][B,B,,][A,A,,] | 
[V:1] {/GA} B/A/G/B/- B/A/G | 
[V:2] [G,G,,][DB,G,][D,D,,][DB,G,] | 
[V:1] AG/^F/- z/ d/a & x2F2 | 
[V:2] [^F,^F,,][DCF,][D,D,,][DCF,] | 
[V:1] {/AB} c/B/A/c/- c/B/A | 
[V:2] [A,A,,][DC^F,][D,D,,][F,^F,,] | 
[V:1] x2z/ d/b & BA/G/-G2 | 
[V:2] [G,G,,][DB,G,][B,,B,,,][D,D,,] | 
[V:1] {/GA} B/A/G/A/ B/cd/ | 
[V:2] [G,G,,][DB,G,][D,D,,][DB,G,] | 
[V:1] x2z/ g/e' & ed/c/-c2 | 
[V:2] [C,C,,][ECG,][E,E,,][ECG,] | 
[V:1] {/Bc} d/c/B/A/- A/c/B/A/ |[1 
[V:2] [D,D,,][DB,G,][D,D,,][DC^F,] | 
[V:1] G/d/B/G/ ^F/A/d :|][2 
[V:2] [G,G,,][DB,G,][D,D,,][DC^F,] :|]  
[V:1] GA/B/c-c3//c/8^c/8 ]|: 
[V:2] x2[E2A,2] & [D2B,2G,2]F,!accent![F,F,,] ]|:  
[V:1] dz[c/G/][^cB][d/B/F/]- | 
[V:2] [B,,B,,,][D,D,,][E,E,,][=E,=E,,] | 
[V:1] [dBF][g/^c/][f/d/]- [f/d/][b/d/]- [b3//d3//]=c/8^c/8 | 
[V:2] [F,F,,]B,[D,D,,][DB,F,] | 
[V:1] dz[c/G/][^cB][d/B/F/]- | 
[V:2] [B,,B,,,][D,D,,][E,E,,][=E,=E,,] | 
[V:1] [d3B3F3][fdB] | 
[V:2] [F,F,,]B,/C/[K:clef=treble] D/F/ _A3//F/8^F/8 | 
[V:1] g/b/xd/f/x & [eB][geB][BF][dBF] | 
[V:2] !accent!G-G3//C/8^C/8!accent!D-D3//[K:clef=bass]F,/8^F,/8 | 
[V:1] G/B/[GEB,]D/F/[DB,F,] & [EB,]x[B,F,]x | 
[V:2] !accent!G,-G,3//C,/8^C,/8!accent!D,2 | 
[V:1] [c/^F/][BG][B/G/]-[B2G2] | 
[V:2] [E,E,,][EB,G,][B,,B,,,][EB,G,] | 
[V:1] d/cB/- [B/G/]c/G & G>G-x2 | 
[V:2] [E,E,,][EB,G,][G,G,,][E,E,,] | 
[V:1] [G/^C/][FD][B/D/]-[B2D2]- | 
[V:2] [B,,B,,,][B,F,]F,,[B,F,] | 
[V:1] [BD]D/F/ B/c/d/f/ | 
[V:2] [B,,B,,,][B,F,][D,D,,][=B,,=B,,,] | 
[V:1] [g/e/A/]=B/c/[f/e/A/]-[f2e2A2]- | 
[V:2] [C,C,,][EA,F,][F,F,,][=B,=B,,] | 
[V:1] [feA]g/[f/e/A/]- [f/e/A/]g/[feA] | 
[V:2] [CC,][EA,F,][F,F,,][EA,F,] | 
[V:1] {/Bd} [g/d/B/]^c/d/[f/d/B/]-[f2d2B2]- | 
[V:2] [B,B,,][DB,F,][F,F,,][DB,F,] | 
[V:1] [f/d/B/]g/[f/d/^G/][e/A/]- [e/A/]f/ [e3//A3//]c/8^c/8 | 
[V:2] [D,D,,][=B,,=B,,,][C,C,,][EA,F,] | 
[V:1] dz[c/G/][^cB][d/B/F/]- | 
[V:2] [B,,B,,,][D,D,,][E,E,,][=E,=E,,] | 
[V:1] [dBF][g/^c/][f/d/]- [f/d/][b/d/]- [b3//d3//]=c/8^c/8 | 
[V:2] [F,F,,]B,[D,D,,][DB,F,] | 
[V:1] dz[c/G/][^cB][d/B/F/]- | 
[V:2] [B,,B,,,][D,D,,][E,E,,][=E,=E,,] | 
[V:1] [d3B3F3][fdB] | 
[V:2] [F,F,,]B,/C/[K:clef=treble] D/F/ _A3//F/8^F/8 | 
[V:1] g/b/xd/f/[dBF] & [eB][geB][BF]x | 
[V:2] !accent!G-G3//C/8^C/8!accent!D-D3//[K:clef=bass]F,/8^F,/8 | 
[V:1] G/B/[GEB,]D/F/[DB,F,] & [EB,]x[B,F,]x | 
[V:2] !accent!G,-G,3//C,/8^C,/8!accent!D,2 | 
[V:1] B,/CD/- D/C/B, | 
[V:2] G,,/A,,B,,/- B,,/C,/D, | 
[V:1] d/cB/- B/A/G | 
[V:2] B,/A,G,/- G,/F,/[^CB,=E,] | 
[V:1] {/Bd} [g/d/B/]f/[d/B/][e/A/]- [e/A/]f/G/A/ |[1 
[V:2] [F,F,,][DB,F,][F,F,,][EA,F,] | 
[V:1] BF/[f/d/]- [f/d/]F/ [e3//c3//]c/8^c/8 :|][2 
[V:2] [B,B,,][DB,F,][F,F,,][EA,F,] :|]  
[V:1] B3c || 
[V:2] [B,B,,][F,F,,][G,G,,][A,A,,] ||  
[V:1]  [K:Db] [M:C]d3B/c/ | 
[V:2]  [K:Db] [M:C][B,B,,][DB,F,][F,F,,][DB,F,] | 
[V:1] d3B/c/ ]|:  
[V:2] [B,B,,][DB,F,][F,F,,][DB,F,] ]|:  
[V:1] d/f/b/d'/ e/g/b/e'/ & d2e2 | 
[V:2] z[DB,F,]z[EB,G,] & [B,2B,,2][G,2G,,2] | 
[V:1] z/ [d'/b/f/]- [d'/b/f/][c'/=a/f/][bf]B & d>cBF | 
[V:2] [F,F,,][E,E,,]z[B,F,] & x2[D,2D,,2] | 
[V:1] =A=G/_G/- G/=G/=A & [E4C4] | 
[V:2] _G,=G,/=A,/- A,/=G,/_G, & C,4 | 
[V:1] cB/=A/- A/B/c & [_G4E4] | 
[V:2] =A,B,/C/- C/B,/=A, & E,4 | 
[V:1] !tenuto!!accent!=B!tenuto!!accent!c2!tenuto!!accent!d | 
[V:2] !tenuto!!accent!_A,!tenuto!!accent!=A,2!tenuto!!accent!B, | 
[V:1] !tenuto!!accent!=d!tenuto!!accent!e!tenuto!!accent!=e!tenuto!!accent!f | 
[V:2] !tenuto!!accent!=B,!tenuto!!accent!C!tenuto!!accent!_D!tenuto!!accent!=D | 
[V:1] !tenuto!!accent![gcG]!tenuto!!accent![e2c2B2]!tenuto!!accent![=ecB] | 
[V:2] !tenuto!!accent![EB,]!tenuto!!accent![C2G,2]!tenuto!!accent![CG,] | 
[V:1] f4 & [c=A]c/B/ =A/B/A | 
[V:2] CE/D/ C/D/C & F,4 | 
[V:1] d/f/b/d'/ e/g/b/e'/ & d2e2 | 
[V:2] z[DB,F,]z[EB,G,] & [B,2B,,2][G,2G,,2] | 
[V:1] z/ [d'/b/f/]- [d'/b/f/][c'/=a/f/][bf][c'f] & d>cBc | 
[V:2] [F,F,,][E,E,,][D,D,,][=A,,=A,,,] | 
[V:1] [d'/f/d/][c'/c/][d'/d/][e'/e/]- [e'/e/][d'/d/][bB] | 
[V:2] [B,,B,,,][DB,F,][G,G,,][EB,G,] | 
[V:1] b/a/g/f/- f/a/f & [gc]>d-dd | 
[V:2] [A,A,,][GCA,][D,D,,][FDA,][K:clef=treble] | 
[V:1] c'4 & f/=ef/- f/=g/a | 
[V:2] c4 & A/=GA/- A/B/c | 
[V:1] c'2-c'!accent![fc_AF] & =e/=gf/-fx |[1 
[V:2] c2-c[K:clef=bass]!accent![F,F,,] & =G/BA/-Ax | 
[V:1] x2[c'/=a/]a/f/[b/f/]- & [_g_eB_G][fdBF]e3/d/- | 
[V:2] [_E,_E,,][F,F,,][F,F,,][E=A,F,] | 
[V:1] [b/f/d/]f/d/B/ =A/B/c :|][2 
[V:2] [B,B,,][DB,F,][CC,][E=A,F,] :|]  
[V:1] =d/f/c=e/=d/e/f/ & [_AF][=AF][B=E][B/E/][=A/F/]- | 
[V:2] [=B,,=B,,,][C,C,,][C,C,,][CB,=G,] | 
[V:1] f/_e/c/=A/ F/_EF/ & [=A2F2]F/_EF/ ]|: 
[V:2] [F,F,,][_E,_E,,][=D,=D,,][C,C,,] ]|:  
[V:1]  [K:Bb] D/B/G/F/ E/c^c/ & D2E2 | 
[V:2]  [K:Bb] z[B,F,]z[A,F,] & B,,2C,2 | 
[V:1] d/F/B/D/ G/F3/ & D2^C/D3/ | 
[V:2] B,,[B,F,]B,,[B,F,] | 
[V:1] [F/E/][FE][F/E/]- F/G/[FE] & x2Ex | 
[V:2] A,,[A,F,]F,,[A,F,] | 
[V:1] [F/D/][FD][F/D/]- F/G/[FD] & x2Dx | 
[V:2] B,,[B,F,]F,,[B,F,] | 
[V:1] D/B/G/F/ E/c^c/ & D2E2 | 
[V:2] z[B,F,]z[A,F,] & B,,2C,2 | 
[V:1] d/F/B/d/ g/b3/ & D2d2 | 
[V:2] B,,[B,F,][B,B,,][G,G,,] | 
[V:1] x2e'/d'/x & a/c'/d'/[e'/^f/]-f[af] | 
[V:2] [^F,^F,,][DCF,][D,D,,][DCF,] | 
[V:1] c'/b/a/b/-x2 & g2-[b3/g3/][b/e/]- | 
[V:2] [G,G,,][DB,G,][D,D,,][DB,G,] | 
[V:1] [be][ge]B/xF/ & e/B/e/G/ B/[fd]F/ | 
[V:2] [G,G,,][E,E,,][D,D,,][DB,F,] | 
[V:1] ee/d/- [d/B/]F/x & c/G/A/B/-x[fd] | 
[V:2] [F,F,,][EA,F,][B,B,,][_A,_A,,] | 
[V:1] [be][ge]B/xF/ & e/B/e/G/ B/[fd]F/ | 
[V:2] [G,G,,][E,E,,][D,D,,][DB,F,] | 
[V:1] ee/d/-x2 & c/G/A/B<-[dB][b/e/]- | 
[V:2] [F,F,,][EA,F,][B,B,,][F,F,,] | 
[V:1] bgB/xF/ & e/B/e/G/ B/[fd]F/ | 
[V:2] [G,G,,][E,E,,][D,D,,][DB,F,] | 
[V:1] ee/d/- [d/B/]F/x & c/G/A/B/-x[fd] | 
[V:2] [F,F,,][EA,F,][B,B,,][_A,_A,,] | 
[V:1] [be][ge]B/xF/ & e/B/e/G/ B/[fd]F/ |[1 
[V:2] [G,G,,][E,E,,][D,D,,][DB,F,] | 
[V:1] ee/d/- [d/B/]G/F/E/ & c/G/A/B/-x2 :|][2 
[V:2] [F,F,,][EA,F,][B,B,,][A,F,] :|]  
[V:1] ee/d/-xd/e/ & c/G/A/B/-[dB]x | 
[V:2] [F,F,,][EA,F,][B,B,,]B/c/ | 
[V:1] fg2_g | 
[V:2] de2e | 
[V:1] _g/f/b/[d'/b/f/]- [d'/b/f/][b/d/][c'ae] | 
[V:2] e<dF[FF,] | 
[V:1] [bd]f/b/ d/f/B/d/ | 
[V:2] [FB,]dBF | 
[V:1] FF/=E/FD/_E/ | 
[V:2] DD/^C/DB,/=C/ | 
[V:1] FG2_G | 
[V:2] DE2E | 
[V:1] _G/F/B/[d/B/F/]- [d/B/F/][B/D/][cAE] | 
[V:2] E<DF,[F,F,,] | 
[V:1] zf/b/ =e/b/_e/b/ & D[Bf][B=e][B_e] | 
[V:2] xAG_G & [B,4B,,4]- | 
[V:1] [bdB]z!accent![bfdB]z |]  
[V:2] Fz!accent![B,,B,,,]z & [B,,B,]zxz |]  


